public/img/archive.svg

<svg height="24" viewBox="0 0 24 24" width="24" xmlns="http://www.w3.org/2000/svg" xmlns:xlink="http://www.w3.org/1999/xlink"><mask id="a" height="22" maskUnits="userSpaceOnUse" width="19.56" x="2.22" y="1"><path d="m21.78 22v1h-19.56v-1zm-.78-1.56v1.28h-18v-1.28zm-16.12-13.81.22.11.1 1.72.11 2.8v2.74l-.11 3.32v2.26l-.3.09h-1.09l-.33-.09-.12-2.26-.11-3.32v-2.7l.11-2.82.1-1.73.22-.1zm15.44 0 .21.11.11 1.72.11 2.8v2.74l-.11 3.36v2.26l-.3.09h-1.09l-.33-.09-.12-2.26-.11-3.36v-2.7l.11-2.82.1-1.73.22-.1zm-10.81 0 .22.11.1 1.72.11 2.8v2.74l-.11 3.36v2.26l-.31.09h-1.08l-.32-.09-.12-2.3-.12-3.32v-2.7l.12-2.84.1-1.73.22-.1zm5.92 0 .21.11.11 1.72.11 2.8v2.74l-.11 3.36v2.26l-.3.09h-1.09l-.36-.13-.12-2.26-.08-3.32v-2.7l.11-2.82.09-1.75.22-.1zm5.57-2.3v1.79h-18v-1.79zm-9.19-3.33 9.45 2.15-.38.66h-18.09l-.57-.53z" fill="#fff" fill-rule="evenodd"/></mask><path d="m21.78 22v1h-19.56v-1zm-.78-1.56v1.28h-18v-1.28zm-16.12-13.81.22.11.1 1.72.11 2.8v2.74l-.11 3.32v2.26l-.3.09h-1.09l-.33-.09-.12-2.26-.11-3.32v-2.7l.11-2.82.1-1.73.22-.1zm15.44 0 .21.11.11 1.72.11 2.8v2.74l-.11 3.36v2.26l-.3.09h-1.09l-.33-.09-.12-2.26-.11-3.36v-2.7l.11-2.82.1-1.73.22-.1zm-10.81 0 .22.11.1 1.72.11 2.8v2.74l-.11 3.36v2.26l-.31.09h-1.08l-.32-.09-.12-2.3-.12-3.32v-2.7l.12-2.84.1-1.73.22-.1zm5.92 0 .21.11.11 1.72.11 2.8v2.74l-.11 3.36v2.26l-.3.09h-1.09l-.36-.13-.12-2.26-.08-3.32v-2.7l.11-2.82.09-1.75.22-.1zm5.57-2.3v1.79h-18v-1.79zm-9.19-3.33 9.45 2.15-.38.66h-18.09l-.57-.53z" fill="#000222" fill-rule="evenodd"/><g mask="url(#a)"><path d="m2.22 1h19.56v22h-19.56z" fill="#000222" fill-rule="evenodd"/></g></svg>

<svg id="ff808c1a-0151-4881-82b1-da365ca470a5" data-name="Layer 1" xmlns="http://www.w3.org/2000/svg" xmlns:xlink="http://www.w3.org/1999/xlink" width="24" height="24" viewBox="0 0 24 24">
  <defs>
    <style>
      .b5bd5f98-2734-4a0c-be58-bed941474060 {
        fill: #fff;
      }

      .a4290f21-6e86-405f-acb7-f47445c0647e, .b5bd5f98-2734-4a0c-be58-bed941474060 {
        fill-rule: evenodd;
      }

      .a4290f21-6e86-405f-acb7-f47445c0647e {
        fill: #000222;
      }

      .aa381de6-585d-4b45-851f-266102d49214 {
        mask: url(#e165a8a4-f530-4299-9fcc-0eada647a8e4);
      }
    </style>
    <mask id="e165a8a4-f530-4299-9fcc-0eada647a8e4" x="2.22" y="1" width="19.56" height="22" maskUnits="userSpaceOnUse">
      <g id="b030f463-e8b3-4795-b3e8-52894ff11386" data-name="mask-2">
        <path id="ae11a6be-1f4d-4712-90f5-ff96b98bb86c" data-name="path-1" class="b5bd5f98-2734-4a0c-be58-bed941474060" d="M21.78,22v1H2.22V22ZM21,20.44v1.28H3V20.44ZM4.88,6.63l.22.11.1,1.72.11,2.8V14L5.2,17.32l0,2.26-.3.09H3.81l-.33-.09-.12-2.26L3.25,14v-2.7l.11-2.82.1-1.73.22-.1Zm15.44,0,.21.11.11,1.72.11,2.8V14l-.11,3.36,0,2.26-.3.09H19.25l-.33-.09-.12-2.26L18.69,14v-2.7l.11-2.82.1-1.73.22-.1Zm-10.81,0,.22.11.1,1.72.11,2.8V14l-.11,3.36v2.26l-.31.09H8.44l-.32-.09L8,17.32,7.88,14v-2.7L8,8.46l.1-1.73.22-.1Zm5.92,0,.21.11.11,1.72.11,2.8V14l-.11,3.36,0,2.26-.3.09H14.36L14,19.58l-.12-2.26L13.8,14v-2.7l.11-2.82L14,6.73l.22-.1ZM21,4.33V6.12H3V4.33ZM11.81,1l9.45,2.15-.38.66H2.79l-.57-.53Z"/>
      </g>
    </mask>
  </defs>
  <g>
    <path id="b638d8ff-864f-4e95-a20a-c42a368c1abb" data-name="path-1" class="a4290f21-6e86-405f-acb7-f47445c0647e" d="M21.78,22v1H2.22V22ZM21,20.44v1.28H3V20.44ZM4.88,6.63l.22.11.1,1.72.11,2.8V14L5.2,17.32l0,2.26-.3.09H3.81l-.33-.09-.12-2.26L3.25,14v-2.7l.11-2.82.1-1.73.22-.1Zm15.44,0,.21.11.11,1.72.11,2.8V14l-.11,3.36,0,2.26-.3.09H19.25l-.33-.09-.12-2.26L18.69,14v-2.7l.11-2.82.1-1.73.22-.1Zm-10.81,0,.22.11.1,1.72.11,2.8V14l-.11,3.36v2.26l-.31.09H8.44l-.32-.09L8,17.32,7.88,14v-2.7L8,8.46l.1-1.73.22-.1Zm5.92,0,.21.11.11,1.72.11,2.8V14l-.11,3.36,0,2.26-.3.09H14.36L14,19.58l-.12-2.26L13.8,14v-2.7l.11-2.82L14,6.73l.22-.1ZM21,4.33V6.12H3V4.33ZM11.81,1l9.45,2.15-.38.66H2.79l-.57-.53Z"/>
    <g class="aa381de6-585d-4b45-851f-266102d49214">
      <path id="a7e8f8fb-ff74-42f6-a648-231fbfdb1a68" data-name="swatch" class="a4290f21-6e86-405f-acb7-f47445c0647e" d="M2.22,1H21.78V23H2.22Z"/>
    </g>
  </g>
</svg>
